remix/Weather/hail-line.svg

<svg viewBox="0 0 24 24" fill="currentColor" xmlns="http://www.w3.org/2000/svg"><path d="M6 17.4185C3.06817 16.2317 1 13.3574 1 10C1 5.58172 4.58172 2 9 2C12.3949 2 15.2959 4.11466 16.4576 7.09864C16.7951 7.0339 17.1436 7 17.5 7C20.5376 7 23 9.46243 23 12.5C23 15.0176 21.3085 17.14 19 17.793V15.6632C20.1825 15.1015 21 13.8962 21 12.5C21 10.567 19.433 9 17.5 9C16.5205 9 15.6351 9.40232 14.9998 10.0507C14.9999 10.0338 15 10.0169 15 10C15 6.68629 12.3137 4 9 4C5.68629 4 3 6.68629 3 10C3 12.2208 4.2066 14.1599 6 15.1973V17.4185ZM10 17C8.89543 17 8 16.1046 8 15C8 13.8954 8.89543 13 10 13C11.1046 13 12 13.8954 12 15C12 16.1046 11.1046 17 10 17ZM15 20C13.8954 20 13 19.1046 13 18C13 16.8954 13.8954 16 15 16C16.1046 16 17 16.8954 17 18C17 19.1046 16.1046 20 15 20ZM10 23C8.89543 23 8 22.1046 8 21C8 19.8954 8.89543 19 10 19C11.1046 19 12 19.8954 12 21C12 22.1046 11.1046 23 10 23Z"/></svg>

<svg viewBox="0 0 24 24" xmlns="http://www.w3.org/2000/svg"><path fill="none" d="M0 0h24v24H0Z"/><path d="M6 17.418v0c-4.1-1.67-6.07-6.34-4.41-10.43 1.22-3.02 4.15-4.99 7.4-5v0c3.29-.01 6.26 2.02 7.458 5.09v0c2.97-.59 5.87 1.34 6.46 4.32 .55 2.82-1.16 5.59-3.93 6.36v-2.13 0c1.74-.83 2.49-2.92 1.66-4.67 -.83-1.75-2.92-2.5-4.67-1.67 -.38.17-.72.41-1 .71v-.06 0c-.01-3.32-2.69-6-6.01-6s-6 2.68-6 6c0 2.14 1.14 4.12 3 5.19v2.22Zm4-.42v0c-1.11 0-2-.9-2-2 0-1.11.89-2 2-2v0c1.1 0 2 .89 2 2 0 1.1-.9 2-2 2Zm5 3v0c-1.11 0-2-.9-2-2 0-1.11.89-2 2-2v0c1.1 0 2 .89 2 2 0 1.1-.9 2-2 2Zm-5 3v0c-1.11 0-2-.9-2-2 0-1.11.89-2 2-2v0c1.1 0 2 .89 2 2 0 1.1-.9 2-2 2Z"/></svg>
